X:1
T:Title
%%score ( 1 2 ) 3
L:1/8
Q:1/4=80
M:3/4
K:A
V:1 treble nm="Strings 1, Soprano"
V:2 treble 
V:3 bass nm="Strings 1, Bass"
V:1
 z2 z2 [CE]2 | [CE][Ec] [Ec]2 [EA]2 | [DF][Fd] [Fd]2 [DF]2 | [CE][Ec] cB [EA]2 | [EB]4 [DE]2 | %5
w: 1.~O~|Christ~ di vine,~ O~|God~ of~ love,~ Thou~|source~ of~ eve * ry~|good;~ I'll~|
 [CE][Ec] [Ec]2 [EA]2 | [DF][Fd] [Fd]2 [DF]2 | [CE][Ec] [Ec]2 [DB]2 | [CA]4 [Ac]2 | %9
w: live~ in~ time~ and~|heav'n~ a bove,~ And~|serve~ Thee~ as~ I~|should.~ *|
 [EB][Ac] [Bd]2 [EB]2 | [EA][EB] [Ec]2 [EA]2 | [^DF][DB] [DB]2 [DA]2 | [EG]2 [DF]2 [DE]2 | %13
w: ||||
 [CE][Ec] [Ec]2 [EA]2 | [DF][Fd] [Fd]2 [DF]2 | [CE][Ec] [Ec]2 [DB]2 | [CA]4 z2 |] %17
w: ||||
V:2
 x6 | x6 | x6 | z2 E2 z2 | x6 | x6 | x6 | x6 | x6 | x6 | x6 | x6 | x6 | x6 | x6 | x6 | x6 |] %17
V:3
 z2 z2 [A,,A,]2 | [A,,A,][A,,A,] [A,,A,]2 [C,A,]2 | [D,A,][D,A,] [D,A,]2 [D,A,]2 | %3
 [A,,A,][A,,A,] [A,,A,][B,,G,] [C,A,]2 | [E,G,]4 [E,G,]2 | [A,,A,][A,,A,] [A,,A,]2 [C,A,]2 | %6
 [D,A,][D,A,] [D,A,]2 [D,A,]2 | [E,A,][E,A,] [E,A,]2 [E,G,]2 | [A,,A,]4 [A,E]2 | %9
 [G,E][F,E] [E,E]2 [D,G,]2 | [C,A,][B,,G,] [A,,A,]2 [C,A,]2 | [B,,B,][B,,F,] [B,,F,]2 [B,,B,]2 | %12
 [E,B,]4 [E,G,]2 | [A,,A,][A,,A,] [A,,A,]2 [C,A,]2 | [D,A,][D,A,] [D,A,]2 [D,A,]2 | %15
 [E,A,][E,A,] [E,A,]2 [E,G,]2 | [A,,A,]4 z2 |] %17

